**kern	**kern	**dynam
*part1	*part1	*part1
*staff2	*staff1	*
*I"Piano	*	*
*clefF4	*clefG2	*
*k[f#c#]	*k[f#c#]	*
=1	=1	=1
8AL 8d	8aL 8dd	.
8F# 8A	8f# 8a	.
8F#J 8A	8f#J 8a	.
8F#L 8A	8f#L 8a	.
8D 8F#	8d 8f#	.
8DJ 8F#	8dJ 8f#	.
=	=	=
8DL 8F#	8dL 8f#	.
*	*^	*
8AA 8D	8d	8A<	.
*	*v	*v	*
8DJ 8F#	8dJ 8f#	.
8F#L 8A	8f#L 8a	.
8A 8d	8a 8dd	.
8dJ 8f#	8ddJ 8ff#	.
=	=	=
8d> 8f#>	8ff# 8aa	.
8r	8r	.
8r	8r	.
8AA 8A	8e 8g 8a 8cc#	.
8r	8r	.
8r	8r	.
=	=	=
8DD 8D	8d 8f# 8a 8dd	.
8r	8re	.
8r	8re	.
!	!	!LO:DY:a
.	8qg#X/	mf
*	*^	*
4r	[4.a^	8rg	.
.	.	8rg	p
8AA'	.	8A' 8e	.
=	=	=	=
8D'	8a']	8d' 8f#	.
*	*v	*v	*
8r	8re	.
8r	8re	.
!	!	!LO:DY:a
.	8qg#X/	p
*	*^	*
4r	[4.a	8r	.
.	.	8r	.
8AA'	.	8A' 8e	.
=	=	=	=
8D'	8a]	8d' 8f#	.
*	*v	*v	*
8r	8re	.
8r	8re	.
4r	8a' 8cc# 8ee	pp
.	8re	.
8A'	8re	.
=	=	=
8d'	8a' 8dd 8ff#	.
8r	8r	.
8r	8r	.
4r	4r	.
8r	8r	.
==	==	==
*-	*-	*-
!!!system-decoration: {(s1,s2)}
!!!RDF**kern: > = above
!!!RDF**kern: < = below
